package/converter/svg/duotone/compress-wide.svg

<svg xmlns="http://www.w3.org/2000/svg" viewBox="0 0 512 512"><!-- Font Awesome Pro 6.0.0-alpha2 by @fontawesome - https://fontawesome.com License - https://fontawesome.com/license (Commercial License) --><defs><style>.fa-secondary{opacity:.4}</style></defs><path d="M128 288H32C14.312 288 0 302.312 0 320S14.312 352 32 352H96V416C96 433.688 110.312 448 128 448S160 433.688 160 416V320C160 302.312 145.688 288 128 288ZM480 160H416V96C416 78.312 401.688 64 384 64S352 78.312 352 96V192C352 209.688 366.312 224 384 224H480C497.688 224 512 209.688 512 192S497.688 160 480 160Z" class="fa-secondary"/><path d="M128 64C110.312 64 96 78.312 96 96V160H32C14.312 160 0 174.312 0 192S14.312 224 32 224H128C145.688 224 160 209.688 160 192V96C160 78.312 145.688 64 128 64ZM480 288H384C366.312 288 352 302.312 352 320V416C352 433.688 366.312 448 384 448S416 433.688 416 416V352H480C497.688 352 512 337.688 512 320S497.688 288 480 288Z" class="fa-primary"/></svg>

<svg xmlns="http://www.w3.org/2000/svg" viewBox="0 0 512 512"><!--! Font Awesome Pro 6.6.0 by @fontawesome - https://fontawesome.com License - https://fontawesome.com/license (Commercial License) Copyright 2024 Fonticons, Inc. --><defs><style>.fa-secondary{opacity:.4}</style></defs><path class="fa-secondary" d="M0 320c0 17.7 14.3 32 32 32l64 0 0 64c0 17.7 14.3 32 32 32s32-14.3 32-32l0-96c0-17.7-14.3-32-32-32l-96 0c-17.7 0-32 14.3-32 32zM352 96l0 96c0 17.7 14.3 32 32 32l96 0c17.7 0 32-14.3 32-32s-14.3-32-32-32l-64 0 0-64c0-17.7-14.3-32-32-32s-32 14.3-32 32z"/><path class="fa-primary" d="M160 96c0-17.7-14.3-32-32-32s-32 14.3-32 32l0 64-64 0c-17.7 0-32 14.3-32 32s14.3 32 32 32l96 0c17.7 0 32-14.3 32-32l0-96zM352 416c0 17.7 14.3 32 32 32s32-14.3 32-32l0-64 64 0c17.7 0 32-14.3 32-32s-14.3-32-32-32l-96 0c-17.7 0-32 14.3-32 32l0 96z"/></svg>
